svg/u1f374.svg

<svg viewBox="0 0 128 128" xmlns="http://www.w3.org/2000/svg">
  <path d="M87.86,3.74c0,0-0.54-0.99-2.8-0.59c-2.49,0.43-7.82,4.48-9.52,14.44s-3.36,40.77-2.21,42.79 c2.13,3.74,6.51,6.73,6.61,8.85c0.07,1.58-0.41,38.27-0.76,40.88s-2.22,9.75-2.46,11.56c-0.24,1.79,0.82,3.17,1.93,3.28 c1.82,0.17,7.28,0.22,7.28,0.22L87.86,3.74z" fill="#9C9C9C"/>
  <path d="M54.45,48.17c0,0-1.26-30.73-1.35-31.91c-0.05-0.72-0.41-1.76-1.31-1.72 c-0.58,0.02-0.93,0.65-0.93,1.54c0,1.53-0.54,27.44-0.53,28.89c0.03,2.09-2.35,1.64-2.3,0.1c0.05-1.53-0.17-27.37-0.26-28.7 c-0.07-1-0.28-1.65-1.11-1.65c-0.82,0-1.15,0.62-1.29,1.7c-0.31,2.3-0.56,27.35-0.61,28.73c-0.06,1.72-2.32,1.7-2.32-0.14 c0-1.84,0.12-27.16,0.12-28.7c0-0.81-0.44-1.55-1.22-1.53c-0.66,0.02-1.13,0.76-1.18,1.43c-0.1,1.43-1,27.24-1.07,28.52 c-0.11,2.02-2.58,2.07-2.58-0.13c0-2.2,0.88-26.71,0.93-28.24c0.03-0.96-0.5-1.65-0.93-1.65c-1,0-1.25,1.05-1.37,1.8 c-0.26,1.64-2.1,16.09-2.54,21.47c-0.44,5.38-1.26,15.12,0.35,18.43c1.96,4.01,5.91,4.93,5.91,4.93s-0.66,44.62-1.06,47.54 c-0.57,4.2-3.26,11.46-3,13.13s1.21,2.65,2.97,2.74s5.3,0.55,6.3,0.28c0.43-0.12,0.61-27.62,0.61-27.62l0.44-43.23L54.45,48.17z" fill="#9C9C9C"/>
  <path d="M35.12,50.76l19.25,2.31c0,0-0.39,3.85-1.98,5.87c-1.99,2.53-4.51,2.73-4.51,2.73 s0.29,45.82,0.71,49.03c0.42,3.2,3.14,11.06,2.27,12.73c-0.77,1.49-2.65,1.85-6.72,1.72c-4.28-0.14-5.5-0.04-5.67-2.94 c-0.17-2.9,2.44-8.23,2.56-11.92s0.59-50.68,0.59-50.68s-4.66-0.55-6.38-4.53C33.9,51.97,35.12,50.76,35.12,50.76z" fill="#C8C8C8"/>
  <path d="M84.93,64.34l-6.13-1.33c0,0,4.12,3.46,4.2,6.13c0.08,2.67,0.24,40.4-0.17,42.66 s-3.64,10.93-2.16,12.5c1.01,1.06,4.34,0.84,6.2,0.84s3.4-0.08,4.2-1.21c0.81-1.13,0.44-4.16,0.01-6.43 c-0.49-2.64-1.06-5.01-1.06-6.18c0-2.1-1.37-51.02-1.37-51.02L84.93,64.34z" fill="#C8C8C8"/>
  <path d="M87.22,3.49c-1.7,0.05-5.77,1.85-7.95,9.72c-1.7,6.15-2.09,13.53-2.51,26.63 c-0.5,15.76,0.16,20.7,0.65,21.1s8.09,3.56,8.09,3.56l3.15-4.2c0,0-0.49-51.02-0.49-53.13S88.46,3.45,87.22,3.49z" fill="#E0E0E0"/>
  <path d="M34.58,48.29c0,0-0.05,3.71,0,4.06c0.05,0.35,7.9,1.01,10.98,1.06c3.08,0.05,8.83-0.31,8.83-0.31 s0.1-1.24,0.1-2.67c0-1.24-0.04-2.28-0.04-2.28L34.58,48.29z" fill="#E0E0E0"/>
  <path d="M36.35,55.85c2.49,0.58,7.91-1.71,7.11-2.6c-0.86-0.97-8.78-1.75-8.88-1.01 C34.48,52.98,35.03,55.54,36.35,55.85z" fill="#FDFDFD"/>
  <path d="M48.12,121.87c0.64-1.19,0.15-4.79-0.15-6.69c-0.3-1.9-0.55-3.37-1.37-3.25 c-0.67,0.1-0.67,0.85-0.67,2.42c0,1.57,0.12,4.12-0.47,4.69c-0.6,0.57-2.77,1.8-2.55,2.97s1.77,1.12,2.9,1.07 C46.53,123.07,47.6,122.85,48.12,121.87z" fill="#FDFDFD"/>
  <path d="M88.23,115.36c-0.72-0.05-0.77,1.22-0.77,2.57c0,1.35-0.4,2.35-1,2.75c-0.6,0.4-2.17,1.25-2.07,2.02 c0.1,0.77,0.87,0.95,3.1,0.85c2.22-0.1,2.17-1.67,2.1-3.27C89.5,118.68,89.28,115.43,88.23,115.36z" fill="#FDFDFD"/>
  <path d="M77.4,60.52c-0.6,0.26,1.23,2.52,3.31,4.31c2.15,1.85,3.05,2.42,5.24,2.3 c2.2-0.12,3.32-6.08,1.95-6.61c-1.37-0.52-1.77,1.66-3.55,1.96S78.49,60.04,77.4,60.52z" fill="#FDFDFD"/>
</svg>

<svg viewBox="0 0 128 128" xmlns="http://www.w3.org/2000/svg">
  <defs/>
  <path d="M87.86,3.74 C87.86,3.74 87.32,2.75 85.06,3.15 C82.57,3.58 77.24,7.63 75.54,17.59 C73.84,27.55 72.18,58.36 73.33,60.38 C75.46,64.12 79.84,67.11 79.94,69.23 C80.01,70.81 79.53,107.5 79.18,110.11 C78.83,112.72 76.96,119.86 76.72,121.67 C76.48,123.46 77.54,124.84 78.65,124.95 C80.47,125.12 85.93,125.17 85.93,125.17 L87.86,3.74 Z" fill="#9C9C9C"/>
  <path d="M54.45,48.17 C54.45,48.17 53.19,17.44 53.1,16.26 C53.05,15.54 52.69,14.5 51.79,14.54 C51.21,14.56 50.86,15.19 50.86,16.08 C50.86,17.61 50.32,43.52 50.33,44.97 C50.36,47.06 47.98,46.61 48.03,45.07 C48.08,43.54 47.86,17.7 47.77,16.37 C47.7,15.37 47.49,14.72 46.66,14.72 C45.84,14.72 45.51,15.34 45.37,16.42 C45.06,18.72 44.81,43.77 44.76,45.15 C44.7,46.87 42.44,46.85 42.44,45.01 C42.44,43.17 42.56,17.85 42.56,16.31 C42.56,15.5 42.12,14.76 41.34,14.78 C40.68,14.8 40.21,15.54 40.16,16.21 C40.06,17.64 39.16,43.45 39.09,44.73 C38.98,46.75 36.51,46.8 36.51,44.6 C36.51,42.4 37.39,17.89 37.44,16.36 C37.47,15.4 36.94,14.71 36.51,14.71 C35.51,14.71 35.26,15.76 35.14,16.51 C34.88,18.15 33.04,32.6 32.6,37.98 C32.16,43.36 31.34,53.1 32.95,56.41 C34.91,60.42 38.86,61.34 38.86,61.34 C38.86,61.34 38.2,105.96 37.8,108.88 C37.23,113.08 34.54,120.34 34.8,122.01 C35.06,123.68 36.01,124.66 37.77,124.75 C39.53,124.84 43.07,125.3 44.07,125.03 C44.5,124.91 44.68,97.41 44.68,97.41 L45.12,54.18 L54.45,48.17 Z" fill="#9C9C9C"/>
  <path d="M35.12,50.76 L54.37,53.07 C54.37,53.07 53.98,56.92 52.39,58.94 C50.4,61.47 47.88,61.67 47.88,61.67 C47.88,61.67 48.17,107.49 48.59,110.7 C49.01,113.9 51.73,121.76 50.86,123.43 C50.09,124.92 48.21,125.28 44.14,125.15 C39.86,125.01 38.64,125.11 38.47,122.21 C38.3,119.31 40.91,113.98 41.03,110.29 C41.15,106.6 41.62,59.61 41.62,59.61 C41.62,59.61 36.96,59.06 35.24,55.08 C33.9,51.97 35.12,50.76 35.12,50.76 Z" fill="#C8C8C8"/>
  <path d="M84.93,64.34 L78.8,63.01 C78.8,63.01 82.92,66.47 83,69.14 C83.08,71.81 83.24,109.54 82.83,111.8 C82.42,114.06 79.19,122.73 80.67,124.3 C81.68,125.36 85.01,125.14 86.87,125.14 C88.73,125.14 90.27,125.06 91.07,123.93 C91.88,122.8 91.51,119.77 91.08,117.5 C90.59,114.86 90.02,112.49 90.02,111.32 C90.02,109.22 88.65,60.3 88.65,60.3 L84.93,64.34 Z" fill="#C8C8C8"/>
  <path d="M87.22,3.49 C85.52,3.54 81.45,5.34 79.27,13.21 C77.57,19.36 77.18,26.74 76.76,39.84 C76.26,55.6 76.92,60.54 77.41,60.94 C77.9,61.34 85.5,64.5 85.5,64.5 L88.65,60.3 C88.65,60.3 88.16,9.28 88.16,7.17 C88.16,5.06 88.46,3.45 87.22,3.49 Z" fill="#E0E0E0"/>
  <path d="M34.58,48.29 C34.58,48.29 34.53,52 34.58,52.35 C34.63,52.7 42.48,53.36 45.56,53.41 C48.64,53.46 54.39,53.1 54.39,53.1 C54.39,53.1 54.49,51.86 54.49,50.43 C54.49,49.19 54.45,48.15 54.45,48.15 L34.58,48.29 Z" fill="#E0E0E0"/>
  <path d="M36.35,55.85 C38.84,56.43 44.26,54.14 43.46,53.25 C42.6,52.28 34.68,51.5 34.58,52.24 C34.48,52.98 35.03,55.54 36.35,55.85 Z" fill="#FDFDFD"/>
  <path d="M48.12,121.87 C48.76,120.68 48.27,117.08 47.97,115.18 C47.67,113.28 47.42,111.81 46.6,111.93 C45.93,112.03 45.93,112.78 45.93,114.35 C45.93,115.92 46.05,118.47 45.46,119.04 C44.86,119.61 42.69,120.84 42.91,122.01 C43.13,123.18 44.68,123.13 45.81,123.08 C46.53,123.07 47.6,122.85 48.12,121.87 Z" fill="#FDFDFD"/>
  <path d="M88.23,115.36 C87.51,115.31 87.46,116.58 87.46,117.93 C87.46,119.28 87.06,120.28 86.46,120.68 C85.86,121.08 84.29,121.93 84.39,122.7 C84.49,123.47 85.26,123.65 87.49,123.55 C89.71,123.45 89.66,121.88 89.59,120.28 C89.5,118.68 89.28,115.43 88.23,115.36 Z" fill="#FDFDFD"/>
  <path d="M77.4,60.52 C76.8,60.78 78.63,63.04 80.71,64.83 C82.86,66.68 83.76,67.25 85.95,67.13 C88.15,67.01 89.27,61.05 87.9,60.52 C86.53,60 86.13,62.18 84.35,62.48 C82.57,62.78 78.49,60.04 77.4,60.52 Z" fill="#FDFDFD"/>
</svg>
